src/topics/icons/dojo.svg

<svg height="239" preserveAspectRatio="xMidYMid" viewBox="0 0 512 239" width="512" xmlns="http://www.w3.org/2000/svg"><path d="m130.873388 0h24.006113v193.076897h-24.006113v-17.820195c-14.069521 13.908834-33.179197 22.175688-53.3927174 22.175688-26.4084211 0-61.2663392-16.137482-73.26989477-55.743127-1.15374659-3.664842-2.19670955-8.625154-2.40031189-11.090339-1.37631189-16.628522-.74554386-17.762308 0-23.564975 6.09309941-47.4163895 44.46016376-66.8334656 75.67020666-66.8334656 14.9328343 0 28.5192984 4.1089747 39.9948854 11.0883431l-3.362433 22.0788772c-9.601248-8.1151501-22.0838676-13.3638986-36.6324524-13.3638986-31.2100429 0-56.4647174 26.0401403-56.4647174 58.2192909 0 29.701988 22.8533645 59.40697 56.4647174 59.40697 22.1826744 0 44.3653484-13.95674 53.3927174-36.835056z" fill="#353535"/><path d="m237.346433 40.6486082c-31.371727 0-71.796772 18.7932943-76.061443 65.4092478-.524974 5.742783-1.031984 11.909739 0 23.061957.223564 2.413286 1.253552 7.267805 2.413287 10.854799 12.066433 38.760296 47.103002 54.554448 73.648156 54.554448 41.022877 0 77.221177-32.752031 77.221177-77.520592 0-41.1845616-32.625279-76.3598598-77.221177-76.3598598zm0 134.5003038c-33.785014 0-56.756148-29.072218-56.756148-58.140444 0-31.4944875 25.384421-56.9787136 56.756148-56.9787136 34.942752 0 57.915883 29.0712203 57.915883 56.9787136 0 35.079485-28.957443 58.140444-57.915883 58.140444z" fill="#353535"/><path d="m273.92 17.0247485c0 2.4422301-1.317427 2.4422301-2.534051 3.2995556h-65.833419c0-.8573255-1.315431-.8573255-1.315431-3.2995556 0-1.6497777 1.315431-1.6497777 2.533053-2.5071033h65.832421c0 .8573256 1.317427.8573256 1.317427 2.5071033" fill="#8c8c8c"/><g fill="#353535"><path d="m328.295797 6.37554776h19.267369v28.94646394h-19.267369z"/><path d="m347.563166 183.281029c1.345372 23.060959-28.321685 54.799969-28.321685 54.799969l-12.572444-17.553715c16.330105-11.579384 21.435135-29.917568 21.820382-38.452897l-.193622-137.1042184h19.267369z"/><path d="m434.777825 40.6486082c-31.369731 0-71.794776 18.7922963-76.060445 65.4092478-.524975 5.741785-1.031984 11.90874 0 23.061957.224562 2.413286 1.25455 7.267805 2.414285 10.853801 12.064436 38.761294 47.103002 54.556444 73.64616 54.556444 41.024873 0 77.222175-32.753029 77.222175-77.522588 0-41.1845616-32.625279-76.3588618-77.222175-76.3588618zm0 134.4983078c-33.783018 0-56.753154-29.069224-56.753154-58.139446 0-31.4944875 25.383423-56.9797117 56.753154-56.9797117 34.944748 0 57.916881 29.0722183 57.916881 56.9797117 0 35.080483-28.958441 58.139446-57.916881 58.139446z"/></g><path d="m468.44906 17.0247485c0 2.4422301-1.31543 2.4422301-2.532054 3.2995556h-65.834417c0-.8573255-1.315431-.8573255-1.315431-3.2995556 0-1.6497777 1.315431-1.6497777 2.532054-2.5071033h65.834418c0 .8573256 1.31543.8573256 1.31543 2.5071033" fill="#8c8c8c"/></svg>

<?xml version="1.0" encoding="UTF-8" standalone="no"?>
<svg width="512px" height="239px" viewBox="0 0 512 239" version="1.1" xmlns="http://www.w3.org/2000/svg" xmlns:xlink="http://www.w3.org/1999/xlink" preserveAspectRatio="xMidYMid">
	<g>
		<path d="M130.873388,0 L154.879501,0 L154.879501,193.076897 L130.873388,193.076897 L130.873388,175.256702 C116.803867,189.165536 97.694191,197.43239 77.4806706,197.43239 C51.0722495,197.43239 16.2143314,181.294908 4.21077583,141.689263 C3.05702924,138.024421 2.01406628,133.064109 1.81046394,130.598924 C0.434152047,113.970402 1.06492008,112.836616 1.81046394,107.033949 C7.90356335,59.6175595 46.2706277,40.2004834 77.4806706,40.2004834 C92.4135049,40.2004834 105.999969,44.3094581 117.475556,51.2888265 L114.113123,73.3677037 C104.511875,65.2525536 92.0292554,60.0038051 77.4806706,60.0038051 C46.2706277,60.0038051 21.0159532,86.0439454 21.0159532,118.223096 C21.0159532,147.925084 43.8693177,177.630066 77.4806706,177.630066 C99.663345,177.630066 121.846019,163.673326 130.873388,140.79501 L130.873388,0" fill="#353535"></path>
		<path d="M237.346433,40.6486082 C205.974706,40.6486082 165.549661,59.4419025 161.28499,106.057856 C160.760016,111.800639 160.253006,117.967595 161.28499,129.119813 C161.508554,131.533099 162.538542,136.387618 163.698277,139.974612 C175.76471,178.734908 210.801279,194.52906 237.346433,194.52906 C278.36931,194.52906 314.56761,161.777029 314.56761,117.008468 C314.56761,75.8239064 281.942331,40.6486082 237.346433,40.6486082 L237.346433,40.6486082 L237.346433,40.6486082 Z M237.346433,175.148912 C203.561419,175.148912 180.590285,146.076694 180.590285,117.008468 C180.590285,85.5139805 205.974706,60.0297544 237.346433,60.0297544 C272.289185,60.0297544 295.262316,89.1009747 295.262316,117.008468 C295.262316,152.087953 266.304873,175.148912 237.346433,175.148912 L237.346433,175.148912 L237.346433,175.148912 Z" fill="#353535"></path>
		<path d="M273.92,17.0247485 C273.92,19.4669786 272.602573,19.4669786 271.385949,20.3243041 L205.55253,20.3243041 C205.55253,19.4669786 204.237099,19.4669786 204.237099,17.0247485 C204.237099,15.3749708 205.55253,15.3749708 206.770152,14.5176452 L272.602573,14.5176452 C272.602573,15.3749708 273.92,15.3749708 273.92,17.0247485" fill="#8C8C8C"></path>
		<path d="M328.295797,6.37554776 L347.563166,6.37554776 L347.563166,35.3220117 L328.295797,35.3220117 L328.295797,6.37554776 L328.295797,6.37554776 Z" fill="#353535"></path>
		<path d="M347.563166,183.281029 C348.908538,206.341988 319.241481,238.080998 319.241481,238.080998 L306.669037,220.527283 C322.999142,208.947899 328.104172,190.609715 328.489419,182.074386 L328.295797,44.9701676 L347.563166,44.9701676 L347.563166,183.281029" fill="#353535"></path>
		<path d="M434.777825,40.6486082 C403.408094,40.6486082 362.983049,59.4409045 358.71738,106.057856 C358.192405,111.799641 357.685396,117.966596 358.71738,129.119813 C358.941942,131.533099 359.97193,136.387618 361.131665,139.973614 C373.196101,178.734908 408.234667,194.530058 434.777825,194.530058 C475.802698,194.530058 512,161.777029 512,117.00747 C512,75.8229084 479.374721,40.6486082 434.777825,40.6486082 L434.777825,40.6486082 L434.777825,40.6486082 Z M434.777825,175.146916 C400.994807,175.146916 378.024671,146.077692 378.024671,117.00747 C378.024671,85.5129825 403.408094,60.0277583 434.777825,60.0277583 C469.722573,60.0277583 492.694706,89.0999766 492.694706,117.00747 C492.694706,152.087953 463.736265,175.146916 434.777825,175.146916 L434.777825,175.146916 L434.777825,175.146916 Z" fill="#353535"></path>
		<path d="M468.44906,17.0247485 C468.44906,19.4669786 467.13363,19.4669786 465.917006,20.3243041 L400.082589,20.3243041 C400.082589,19.4669786 398.767158,19.4669786 398.767158,17.0247485 C398.767158,15.3749708 400.082589,15.3749708 401.299212,14.5176452 L467.13363,14.5176452 C467.13363,15.3749708 468.44906,15.3749708 468.44906,17.0247485" fill="#8C8C8C"></path>
	</g>
</svg>
